flaticon/transportation/bulldozer.svg

<svg xmlns="http://www.w3.org/2000/svg" width="32" height="32" viewBox="0 0 24 24">
    <path d="M 22.421875 15.589844 L 22.421875 10.730469 C 22.421875 10.445312 22.195312 10.21875 21.914062 10.21875 L 20.160156 10.21875 L 20.160156 3.714844 C 20.160156 3.433594 19.929688 3.203125 19.648438 3.203125 L 13.878906 3.203125 L 13.878906 4.226562 L 15.5625 4.226562 L 13.507812 10.242188 L 9.394531 11.269531 C 9.167969 11.328125 9.007812 11.53125 9.007812 11.765625 L 9.007812 15.570312 L 8.898438 15.570312 C 7.871094 15.570312 7.035156 16.40625 7.035156 17.433594 L 7.035156 18.933594 C 7.035156 19.960938 7.871094 20.796875 8.898438 20.796875 L 22.136719 20.796875 C 23.164062 20.796875 24 19.960938 24 18.933594 L 24 17.433594 C 24 16.503906 23.316406 15.730469 22.421875 15.589844 Z M 19.136719 4.226562 L 19.136719 10.21875 L 14.59375 10.21875 L 16.644531 4.226562 Z M 10.027344 12.164062 L 13.730469 11.238281 L 21.402344 11.238281 L 21.402344 15.570312 L 10.027344 15.570312 Z M 22.980469 18.933594 C 22.980469 19.398438 22.601562 19.773438 22.136719 19.773438 L 8.898438 19.773438 C 8.433594 19.773438 8.054688 19.398438 8.054688 18.933594 L 8.054688 17.433594 C 8.054688 16.96875 8.433594 16.589844 8.898438 16.589844 L 22.136719 16.589844 C 22.601562 16.589844 22.980469 16.96875 22.980469 17.433594 Z M 22.980469 18.933594"/>
    <path d="M10.554688 17.261719L11.394531 17.847656 10.519531 19.101562 9.679688 18.519531zM12.171875 18.519531L13.011719 19.101562 13.882812 17.847656 13.042969 17.261719zM14.660156 18.519531L15.5 19.101562 16.375 17.847656 15.535156 17.261719zM17.152344 18.519531L17.988281 19.101562 18.863281 17.847656 18.023438 17.261719zM19.640625 18.519531L20.480469 19.101562 21.355469 17.847656 20.515625 17.261719zM5.90625 10.527344C5.683594 10.46875 5.445312 10.566406 5.332031 10.769531L.0664062 20.023438C-.0234375 20.179688-.0234375 20.375.0703125 20.53125.160156 20.691406.328125 20.785156.511719 20.785156L5.777344 20.785156C6.058594 20.785156 6.285156 20.558594 6.285156 20.277344L6.285156 11.019531C6.285156 10.789062 6.128906 10.585938 5.90625 10.527344zM5.265625 19.765625L1.390625 19.765625 5.265625 12.953125zM5.265625 19.765625"/>
</svg>

<svg xmlns="http://www.w3.org/2000/svg" width="32" height="32" viewBox="0 0 24 24">
    <path d="M22.422 15.59v-4.86a.508.508 0 0 0-.508-.511H20.16V3.715a.513.513 0 0 0-.512-.512h-5.77v1.024h1.684l-2.054 6.015-4.113 1.028a.514.514 0 0 0-.387.496v3.804h-.11a1.865 1.865 0 0 0-1.863 1.864v1.5c0 1.027.836 1.863 1.863 1.863h13.239A1.865 1.865 0 0 0 24 18.934v-1.5a1.87 1.87 0 0 0-1.578-1.844zM19.137 4.227v5.992h-4.543l2.05-5.992zm-9.11 7.937l3.703-.926h7.672v4.332H10.027zm12.953 6.77c0 .464-.378.84-.843.84H8.898a.842.842 0 0 1-.843-.84v-1.5c0-.465.379-.844.843-.844h13.239c.465 0 .843.379.843.844zm0 0"/>
    <path d="M10.555 17.262l.84.586-.875 1.254-.84-.582zm1.617 1.258l.84.582.87-1.254-.839-.586zm2.488 0l.84.582.875-1.254-.84-.586zm2.492 0l.836.582.875-1.254-.84-.586zm2.489 0l.84.582.874-1.254-.84-.586zm0 0M5.906 10.527a.51.51 0 0 0-.574.243L.066 20.023a.503.503 0 0 0 .004.508.5.5 0 0 0 .442.254h5.265a.507.507 0 0 0 .508-.508V11.02a.51.51 0 0 0-.379-.493zm-.64 9.239H1.39l3.875-6.813zm0 0"/>
</svg>
